X: 24829
T: Maggie Scollard's
R: slide
M: 12/8
K: Gmajor
G2A|:B2G A2G E2G D3|E2G D2E G2E D3|
B2G A2G E2G D3|E2G ABA G3 G2A:|
|:G2A B2G ABc d2B|ccA B2G A2G E2D|
G2A B2G ABc d2B|1 c2A B2A G3 G2D:|2 c2A B2A G3 G2A||

